F[BALLADE
CUT[Graf und Nonne (Die Nonne)
    Ich stand am hohen Bergelein]
REG[Suedosteuropa, Rumaenien, Siebenbuergen]
SRC[8, S. 287
    1909 gedruckt]
KEY[Q01552 08  G 4/4]
MEL[-5_  1_2_3b_4_  3b_2_1_
    1_  5_555_+1_  5__0_
    5_  +1_5_6b_4_  5__4_
    3b_  2_4_3b_2_  1_3b_5_
    5_  +1_5_6b_4_  5__4_
    3b_  2_4_3b_2_  1__0_ //] >>
FCT[Ballade, Standesunterschied, vergebliche Werbung, Liebe, Klage]
